X:158
T: A Busserl is a schnuckrig Ding (2-51), S. 138
N: K1133
O: Luxemburg
S: KINTZELE, Guillaume: An der Ucht, Bd. 2, Luxemburg 1927]
N: in der Quelle mit einer 2. Stimme versehen
R: Scherzlied]
M: 6/8
L: 1/8
K: F
C | A2GF2C | E2DD2
B | B2AG2F | E3z2
G | G2AB2c | d2cA2
c | c2BG2e | f2Ac2
A | G2AB2c | d2cA2
c | c2BG2e | f3z2

@@@ Tune index: 8212
